public/images/break-fest.svg

<svg fill="none" height="68" viewBox="0 0 104 68" width="104" xmlns="http://www.w3.org/2000/svg" xmlns:xlink="http://www.w3.org/1999/xlink"><linearGradient id="a" gradientUnits="userSpaceOnUse" x1="34.2673" x2="34.2673" y1="42" y2="68"><stop offset="0" stop-color="#37a140"/><stop offset="1" stop-color="#63d36c"/></linearGradient><linearGradient id="b"><stop offset="0" stop-color="#2d8f35"/><stop offset="1" stop-color="#63d36c"/></linearGradient><linearGradient id="c" gradientUnits="userSpaceOnUse" x1="25.7679" x2="15.9704" xlink:href="#b" y1="46" y2="67.614"/><linearGradient id="d" gradientUnits="userSpaceOnUse" x1="103.07" x2="50.2673" y1="49" y2="49"><stop offset="0" stop-color="#37a140"/><stop offset=".255025" stop-color="#63d36c"/><stop offset=".812036" stop-color="#1e5b23"/><stop offset="1" stop-color="#63d36c"/></linearGradient><linearGradient id="e" gradientUnits="userSpaceOnUse" x1="42.7669" x2="52.5639" xlink:href="#b" y1="46.0001" y2="67.6132"/><linearGradient id="f"><stop offset="0" stop-color="#37a140"/><stop offset=".335439" stop-color="#39a342"/><stop offset="1" stop-color="#63d36c"/></linearGradient><linearGradient id="g" gradientUnits="userSpaceOnUse" x1="11.2656" x2=".265608" xlink:href="#f" y1="52.5" y2="68.0001"/><linearGradient id="h" gradientUnits="userSpaceOnUse" x1="57.2691" x2="68.2691" xlink:href="#f" y1="52.5" y2="68.0001"/><linearGradient id="i"><stop offset="0" stop-color="#fff" stop-opacity=".24"/><stop offset="1" stop-color="#fff" stop-opacity="0"/></linearGradient><linearGradient id="j" gradientUnits="userSpaceOnUse" x1="65.2673" x2="65.2673" xlink:href="#i" y1="18" y2="36"/><linearGradient id="k" gradientUnits="userSpaceOnUse" x1="64.2673" x2="64.2673" y1="0" y2="14"><stop offset="0" stop-color="#fff" stop-opacity=".16"/><stop offset="1" stop-color="#fff" stop-opacity="0"/></linearGradient><linearGradient id="l" gradientUnits="userSpaceOnUse" x1="76.7659" x2="76.7659" xlink:href="#i" y1="9" y2="30"/><path d="m25.98 45.3408c.1759-.8207.8034-1.4698 1.6176-1.6734 4.3791-1.0947 8.9604-1.0947 13.3395 0 .8142.2036 1.4417.8527 1.6175 1.6734l.5252 2.4506c1.4351 6.6972 1.1556 13.6483-.8125 20.2086h-16c-1.9681-6.5603-2.2475-13.5114-.8124-20.2086z" fill="url(#a)"/><path d="m13.638 48.8447c3.5735-2.6114 7.9613-3.7943 12.3134-3.375l-.496 2.3223c-1.4351 6.6969-1.1565 13.6478.8115 20.208h-14l-.4776-1.4707c-1.6376-5.0389-1.6103-10.4711.0782-15.4932l.0839-.25c.2056-.6113.5956-1.1438 1.1163-1.5244z" fill="url(#c)"/><path clip-rule="evenodd" d="m82.8669 30c2.2403 0 3.3612-.0004 4.2168.4355.7525.3835 1.3646.9956 1.7481 1.7481.2905.5701.3846 1.2582.417 2.3164h5.3105c6.3187.0001 10.4287 6.6502 7.6027 12.3018l-1.447 2.8935c-1.779 3.5572-5.4149 5.8047-9.392 5.8047h-2.4404c-.2383 1.7029-.6232 3.0792-1.25 4.3096-1.4381 2.8224-3.7333 5.1175-6.5557 6.5556-3.2086 1.6348-7.409 1.6348-15.8096 1.6348h-15v-31.5996c0-2.2402-.0004-3.3612.4356-4.2168.3834-.7525.9955-1.3646 1.748-1.7481.8557-.4359 1.9766-.4355 4.2168-.4355zm6.4004 14c0 2.5142-.0011 4.6522-.0449 6.5h2.1006c2.0831 0 3.9872-1.177 4.9189-3.04l1.4473-2.8946c1.1636-2.3271-.5281-5.0653-3.1299-5.0654h-5.292z" fill="url(#d)" fill-rule="evenodd"/><path d="m54.8963 48.8439c-3.5736-2.6115-7.9612-3.7934-12.3134-3.3741l.497 2.3213c1.4351 6.6972 1.1556 13.6487-.8125 20.209h14l.4785-1.4717c1.6375-5.0387 1.6094-10.4712-.0791-15.4931l-.0839-.249c-.2056-.6114-.5955-1.1449-1.1163-1.5254z" fill="url(#e)"/><path d="m11.4716 52.333c-1.2843 4.6514-1.1802 9.5883.3174 14.1963l.4775 1.4707h-7.32714c-.32512 0-.64851-.0473-.95996-.1406-4.496943-1.3474-5.42063-7.3086-1.54199-9.9532l1.33008-.9062z" fill="url(#g)"/><path d="m57.0631 52.333c1.2843 4.6514 1.1802 9.5883-.3174 14.1963l-.4775 1.4707h7.3271c.3252 0 .6485-.0473.96-.1406 4.4969-1.3474 5.4206-7.3086 1.542-9.9532l-1.3301-.9062z" fill="url(#h)"/><circle cx="65.2673" cy="27" fill="url(#j)" r="9"/><circle cx="64.2673" cy="7" fill="url(#k)" r="7"/><path d="m76.7673 9c5.799 0 10.5 4.701 10.5 10.5s-4.701 10.5-10.5 10.5c-.9997 0-1.9658-.1433-2.8818-.4043.2472-.822.3818-1.6931.3818-2.5957 0-4.5979-3.4481-8.3878-7.8994-8.9307.6981-5.1219 5.0859-9.0693 10.3994-9.0693z" fill="url(#l)"/></svg>

<svg width="104" height="68" viewBox="0 0 104 68" fill="none" xmlns="http://www.w3.org/2000/svg">
<path d="M25.98 45.3408C26.1559 44.5201 26.7834 43.871 27.5976 43.6674C31.9767 42.5727 36.558 42.5727 40.9371 43.6674C41.7513 43.871 42.3788 44.5201 42.5546 45.3408L43.0798 47.7914C44.5149 54.4886 44.2354 61.4397 42.2673 68H26.2673C24.2992 61.4397 24.0198 54.4886 25.4549 47.7914L25.98 45.3408Z" fill="url(#paint0_linear_20_1370)"/>
<path d="M13.638 48.8447C17.2115 46.2333 21.5993 45.0504 25.9514 45.4697L25.4554 47.792C24.0203 54.4889 24.2989 61.4398 26.2669 68H12.2669L11.7893 66.5293C10.1517 61.4904 10.179 56.0582 11.8675 51.0361L11.9514 50.7861C12.157 50.1748 12.547 49.6423 13.0677 49.2617L13.638 48.8447Z" fill="url(#paint1_linear_20_1370)"/>
<path fill-rule="evenodd" clip-rule="evenodd" d="M82.8669 30C85.1072 30 86.2281 29.9996 87.0837 30.4355C87.8362 30.819 88.4483 31.4311 88.8318 32.1836C89.1223 32.7537 89.2164 33.4418 89.2488 34.5H94.5593C100.878 34.5001 104.988 41.1502 102.162 46.8018L100.715 49.6953C98.936 53.2525 95.3001 55.5 91.323 55.5H88.8826C88.6443 57.2029 88.2594 58.5792 87.6326 59.8096C86.1945 62.632 83.8993 64.9271 81.0769 66.3652C77.8683 68 73.6679 68 65.2673 68H50.2673V36.4004C50.2673 34.1602 50.2669 33.0392 50.7029 32.1836C51.0863 31.4311 51.6984 30.819 52.4509 30.4355C53.3066 29.9996 54.4275 30 56.6677 30H82.8669ZM89.2673 44C89.2673 46.5142 89.2662 48.6522 89.2224 50.5H91.323C93.4061 50.5 95.3102 49.323 96.2419 47.46L97.6892 44.5654C98.8528 42.2383 97.1611 39.5001 94.5593 39.5H89.2673V44Z" fill="url(#paint2_linear_20_1370)"/>
<path d="M54.8963 48.8439C51.3227 46.2324 46.9351 45.0505 42.5829 45.4698L43.0799 47.7911C44.515 54.4883 44.2355 61.4398 42.2674 68.0001H56.2674L56.7459 66.5284C58.3834 61.4897 58.3553 56.0572 56.6668 51.0353L56.5829 50.7863C56.3773 50.1749 55.9874 49.6414 55.4666 49.2609L54.8963 48.8439Z" fill="url(#paint3_linear_20_1370)"/>
<path d="M11.4716 52.333C10.1873 56.9844 10.2914 61.9213 11.789 66.5293L12.2665 68H4.93936C4.61424 68 4.29085 67.9527 3.9794 67.8594C-0.517543 66.512 -1.44123 60.5508 2.43741 57.9062L3.76749 57L11.4716 52.333Z" fill="url(#paint4_linear_20_1370)"/>
<path d="M57.0631 52.333C58.3474 56.9844 58.2433 61.9213 56.7457 66.5293L56.2682 68H63.5953C63.9205 68 64.2438 67.9527 64.5553 67.8594C69.0522 66.512 69.9759 60.5508 66.0973 57.9062L64.7672 57L57.0631 52.333Z" fill="url(#paint5_linear_20_1370)"/>
<circle cx="65.2673" cy="27" r="9" fill="url(#paint6_linear_20_1370)"/>
<circle cx="64.2673" cy="7" r="7" fill="url(#paint7_linear_20_1370)"/>
<path d="M76.7673 9C82.5663 9 87.2673 13.701 87.2673 19.5C87.2673 25.299 82.5663 30 76.7673 30C75.7676 30 74.8015 29.8567 73.8855 29.5957C74.1327 28.7737 74.2673 27.9026 74.2673 27C74.2673 22.4021 70.8192 18.6122 66.3679 18.0693C67.066 12.9474 71.4538 9 76.7673 9Z" fill="url(#paint8_linear_20_1370)"/>
<defs>
<linearGradient id="paint0_linear_20_1370" x1="34.2673" y1="42" x2="34.2673" y2="68" gradientUnits="userSpaceOnUse">
<stop stop-color="#37A140"/>
<stop offset="1" stop-color="#63D36C"/>
</linearGradient>
<linearGradient id="paint1_linear_20_1370" x1="25.7679" y1="46" x2="15.9704" y2="67.614" gradientUnits="userSpaceOnUse">
<stop stop-color="#2D8F35"/>
<stop offset="1" stop-color="#63D36C"/>
</linearGradient>
<linearGradient id="paint2_linear_20_1370" x1="103.07" y1="49" x2="50.2673" y2="49" gradientUnits="userSpaceOnUse">
<stop stop-color="#37A140"/>
<stop offset="0.255025" stop-color="#63D36C"/>
<stop offset="0.812036" stop-color="#1E5B23"/>
<stop offset="1" stop-color="#63D36C"/>
</linearGradient>
<linearGradient id="paint3_linear_20_1370" x1="42.7669" y1="46.0001" x2="52.5639" y2="67.6132" gradientUnits="userSpaceOnUse">
<stop stop-color="#2D8F35"/>
<stop offset="1" stop-color="#63D36C"/>
</linearGradient>
<linearGradient id="paint4_linear_20_1370" x1="11.2656" y1="52.5" x2="0.265608" y2="68.0001" gradientUnits="userSpaceOnUse">
<stop stop-color="#37A140"/>
<stop offset="0.335439" stop-color="#39A342"/>
<stop offset="1" stop-color="#63D36C"/>
</linearGradient>
<linearGradient id="paint5_linear_20_1370" x1="57.2691" y1="52.5" x2="68.2691" y2="68.0001" gradientUnits="userSpaceOnUse">
<stop stop-color="#37A140"/>
<stop offset="0.335439" stop-color="#39A342"/>
<stop offset="1" stop-color="#63D36C"/>
</linearGradient>
<linearGradient id="paint6_linear_20_1370" x1="65.2673" y1="18" x2="65.2673" y2="36" gradientUnits="userSpaceOnUse">
<stop stop-color="white" stop-opacity="0.24"/>
<stop offset="1" stop-color="white" stop-opacity="0"/>
</linearGradient>
<linearGradient id="paint7_linear_20_1370" x1="64.2673" y1="0" x2="64.2673" y2="14" gradientUnits="userSpaceOnUse">
<stop stop-color="white" stop-opacity="0.16"/>
<stop offset="1" stop-color="white" stop-opacity="0"/>
</linearGradient>
<linearGradient id="paint8_linear_20_1370" x1="76.7659" y1="9" x2="76.7659" y2="30" gradientUnits="userSpaceOnUse">
<stop stop-color="white" stop-opacity="0.24"/>
<stop offset="1" stop-color="white" stop-opacity="0"/>
</linearGradient>
</defs>
</svg>
